src/assets/map-marker.svg

<svg width="35" height="35" viewBox="0 0 35 35" fill="none" xmlns="http://www.w3.org/2000/svg">
<rect width="35" height="35" rx="17.5" transform="matrix(1 0 0 -1 0 35)" fill="#272727"/>
<path d="M9.58445 12.3122C9.47027 12.3123 9.36037 12.2741 9.27738 12.2055C9.19439 12.1368 9.14464 12.0429 9.13836 11.9431C9.10981 11.4349 9.09375 10.9022 9.09375 10.3593C9.09375 10.2557 9.14075 10.1564 9.22441 10.0831C9.30806 10.0099 9.42153 9.96875 9.53984 9.96875C9.65815 9.96875 9.77161 10.0099 9.85527 10.0831C9.93893 10.1564 9.98592 10.2557 9.98592 10.3593C9.98592 10.8881 10.0015 11.4064 10.0305 11.9001C10.0372 12.0035 9.99678 12.1049 9.91807 12.1822C9.83935 12.2595 9.72882 12.3062 9.61077 12.3122C9.602 12.3126 9.59321 12.3126 9.58445 12.3122Z" fill="#EFEFEF"/>
<path d="M22.1968 12.3122C22.1886 12.3126 22.1804 12.3126 22.1722 12.3122C22.1137 12.3095 22.0564 12.2966 22.0035 12.2745C21.9506 12.2523 21.9032 12.2212 21.8641 12.183C21.8249 12.1448 21.7948 12.1002 21.7753 12.0518C21.7558 12.0034 21.7475 11.9521 21.7507 11.9008C21.7814 11.4069 21.7953 10.8885 21.7953 10.3595C21.7953 10.2558 21.8423 10.1565 21.9259 10.0832C22.0096 10.0099 22.1231 9.96875 22.2414 9.96875C22.3597 9.96875 22.4732 10.0099 22.5568 10.0832C22.6405 10.1565 22.6875 10.2558 22.6875 10.3595C22.6875 10.9025 22.6714 11.4355 22.6402 11.9438C22.6337 12.0431 22.5843 12.1365 22.5019 12.2049C22.4195 12.2734 22.3104 12.3118 22.1968 12.3122Z" fill="#EFEFEF"/>
<path d="M22.6846 13.7199C22.6916 13.6609 22.6859 13.6011 22.6681 13.5445C22.6502 13.4878 22.6205 13.4356 22.5809 13.3912C22.5413 13.3468 22.4927 13.3113 22.4384 13.2869C22.384 13.2626 22.3251 13.25 22.2656 13.25H20.767C20.7461 13.3947 20.7064 13.5362 20.6489 13.6707C20.5633 13.8189 20.4344 13.9376 20.2793 14.0108C20.1243 14.0839 19.9505 14.1081 19.7812 14.08C19.6608 14.0588 19.5466 14.011 19.447 13.9402C19.3474 13.8694 19.2649 13.7773 19.2056 13.6707C19.1441 13.5369 19.1015 13.3954 19.079 13.25H9.98445C9.92487 13.25 9.86596 13.2626 9.81161 13.2869C9.75726 13.3113 9.7087 13.3468 9.66911 13.3912C9.62952 13.4356 9.59982 13.4878 9.58194 13.5445C9.56407 13.6011 9.55843 13.6609 9.5654 13.7199C9.78761 15.5707 10.2252 17.3895 10.8694 19.1394C11.0331 19.1394 11.1783 19.1356 11.3116 19.1272L11.3142 19.1394H13.382C13.6618 19.1394 13.9301 19.2502 14.128 19.4475C14.3258 19.6447 14.437 19.9122 14.437 20.1911C14.437 20.47 14.3258 20.7375 14.128 20.9348C13.9301 21.132 13.6618 21.2428 13.382 21.2428C13.6618 21.2428 13.9301 21.3536 14.128 21.5508C14.3258 21.748 14.437 22.0155 14.437 22.2945C14.437 22.5734 14.3258 22.8409 14.128 23.0381C13.9301 23.2354 13.6618 23.3462 13.382 23.3462C13.6618 23.3462 13.9301 23.457 14.128 23.6542C14.3258 23.8514 14.437 24.1189 14.437 24.3978C14.437 24.6768 14.3258 24.9443 14.128 25.1415C13.9301 25.3387 13.6618 25.4495 13.382 25.4495H12.8756C12.6696 25.372 12.4423 25.372 12.2363 25.4495H12.2202V25.4537C12.0781 25.494 11.9329 25.5222 11.786 25.5379C11.6949 26.4013 11.5506 27.2583 11.3538 28.104C11.3099 28.2892 11.3086 28.4819 11.35 28.6677C11.3914 28.8535 11.4743 29.0276 11.5927 29.1769C11.7111 29.3262 11.8619 29.4468 12.0337 29.5299C12.2055 29.6129 12.3939 29.6561 12.5848 29.6562H19.6652C19.856 29.6562 20.0443 29.6132 20.2161 29.5303C20.3878 29.4475 20.5386 29.3271 20.6571 29.178C20.7756 29.0289 20.8588 28.8551 20.9004 28.6695C20.942 28.4838 20.941 28.2912 20.8974 28.1061C20.5327 26.5455 20.3474 24.9485 20.345 23.3462C20.345 22.0732 20.7337 20.9731 21.184 19.6998C21.1987 19.6558 21.2058 19.6098 21.2051 19.5635C21.0654 19.5699 20.9255 19.5688 20.786 19.5601H18.657C18.3212 19.5601 17.9992 19.4271 17.7618 19.1905C17.5244 18.9538 17.391 18.6328 17.391 18.2981C17.391 17.9634 17.5244 17.6424 17.7618 17.4057C17.9992 17.169 18.3212 17.0361 18.657 17.0361H21.6055C21.6081 17.0264 21.6106 17.0159 21.6131 17.0066C21.7423 17.0218 21.8828 17.0297 22.0419 17.0327C22.3379 15.9458 22.5527 14.8385 22.6846 13.7199Z" fill="#F2C247"/>
<path d="M10.4556 8.09375C10.397 8.09391 10.3391 8.08199 10.2856 8.05875C10.1825 8.01443 10.1015 7.93179 10.0605 7.82898C10.0194 7.72617 10.0217 7.6116 10.0667 7.51042C10.265 7.06492 10.5915 6.68577 11.0061 6.41936C11.4208 6.15295 11.9056 6.01084 12.4014 6.01043C12.6285 6.01047 12.8544 6.04161 13.0728 6.10293C13.2751 5.64293 13.595 5.24187 14.0015 4.93851C14.4081 4.63515 14.8876 4.43974 15.3937 4.37117C15.8998 4.30259 16.4153 4.36317 16.8906 4.54705C17.3658 4.73093 17.7846 5.03189 18.1066 5.42085C18.4479 5.26018 18.8217 5.17687 19.2004 5.1771C19.8764 5.17776 20.5245 5.44137 21.0025 5.91006C21.4805 6.37875 21.7493 7.01425 21.75 7.67708C21.75 7.78759 21.7052 7.89357 21.6255 7.97171C21.5458 8.04985 21.4378 8.09375 21.3251 8.09375C21.2124 8.09375 21.1043 8.04985 21.0246 7.97171C20.9449 7.89357 20.9001 7.78759 20.9001 7.67708C20.9008 7.37214 20.8159 7.07288 20.6548 6.81204C20.4937 6.5512 20.2626 6.33882 19.9867 6.19812C19.7107 6.05743 19.4007 5.99384 19.0904 6.01431C18.7801 6.03477 18.4815 6.13851 18.2273 6.31418C18.1796 6.34699 18.1256 6.36985 18.0686 6.38135C18.0116 6.39285 17.9527 6.39273 17.8958 6.38101C17.8388 6.36929 17.7849 6.34621 17.7374 6.31321C17.6899 6.28021 17.6498 6.238 17.6196 6.18918C17.4042 5.83655 17.087 5.55443 16.7081 5.37846C16.3293 5.20248 15.9057 5.14054 15.491 5.20047C15.0763 5.26039 14.689 5.43948 14.378 5.71513C14.067 5.99078 13.8463 6.35061 13.7437 6.74917C13.7282 6.8093 13.6992 6.86526 13.6588 6.91298C13.6184 6.96069 13.5676 6.99896 13.5102 7.025C13.4528 7.05103 13.3901 7.06416 13.3269 7.06344C13.2636 7.06272 13.2014 7.04817 13.1446 7.02084C12.9393 6.92219 12.7158 6.86524 12.4875 6.8534C12.2592 6.84155 12.0308 6.87507 11.8161 6.95193C11.6013 7.02878 11.4046 7.1474 11.2378 7.30065C11.071 7.45391 10.9374 7.63863 10.8452 7.84375C10.8121 7.91809 10.7577 7.98134 10.6884 8.02575C10.6192 8.07015 10.5383 8.09379 10.4556 8.09375Z" fill="#EFEFEF"/>
<path d="M22.2969 10.4375C22.1933 10.4375 22.0939 10.4005 22.0207 10.3345C21.9474 10.2686 21.9062 10.1792 21.9062 10.0859C21.9062 9.9927 21.8651 9.90328 21.7918 9.83735C21.7186 9.77141 21.6192 9.73438 21.5156 9.73438H21.4492C21.3633 9.73447 21.2809 9.76524 21.2201 9.81994C21.1593 9.87465 21.1251 9.94881 21.125 10.0262C21.125 10.1194 21.0838 10.2088 21.0106 10.2748C20.9373 10.3407 20.838 10.3777 20.7344 10.3777C20.6308 10.3777 20.5314 10.3407 20.4582 10.2748C20.3849 10.2088 20.3438 10.1194 20.3438 10.0262C20.3442 9.76242 20.4608 9.50957 20.668 9.32307C20.8752 9.13656 21.1562 9.03162 21.4492 9.03125H21.5156C21.8264 9.03125 22.1245 9.14237 22.3443 9.34016C22.564 9.53795 22.6875 9.80622 22.6875 10.0859C22.6875 10.1792 22.6463 10.2686 22.5731 10.3345C22.4998 10.4005 22.4005 10.4375 22.2969 10.4375Z" fill="#EFEFEF"/>
<path d="M15.9688 11.8437C15.9382 11.8437 15.9073 11.8437 15.8764 11.8437C15.4273 11.8125 15.0082 11.6213 14.7056 11.3095C14.4029 10.9978 14.2398 10.5892 14.25 10.1683C14.2499 10.0799 14.2123 9.99513 14.1454 9.93261C14.0786 9.87009 13.9879 9.83493 13.8934 9.83482H10.3828C10.2689 9.83482 10.1596 9.87715 10.079 9.9525C9.9984 10.0278 9.95312 10.13 9.95312 10.2366C9.95312 10.3432 9.90785 10.4454 9.82727 10.5207C9.74669 10.5961 9.6374 10.6384 9.52344 10.6384C9.40948 10.6384 9.30018 10.5961 9.2196 10.5207C9.13902 10.4454 9.09375 10.3432 9.09375 10.2366C9.09375 9.91692 9.22956 9.61034 9.47131 9.38429C9.71305 9.15824 10.0409 9.03125 10.3828 9.03125H13.8934C14.2157 9.03168 14.5248 9.15161 14.7527 9.36475C14.9807 9.5779 15.1089 9.86687 15.1094 10.1683C15.1024 10.3826 15.1823 10.5915 15.3329 10.7531C15.4836 10.9148 15.6939 11.0173 15.9219 11.0402C16.0386 11.0461 16.1555 11.0298 16.2652 10.992C16.3749 10.9543 16.4753 10.8961 16.5601 10.8209C16.6449 10.7457 16.7124 10.655 16.7585 10.5546C16.8046 10.4541 16.8283 10.3459 16.8281 10.2366C16.8281 9.91692 16.9639 9.61034 17.2057 9.38429C17.4474 9.15824 17.7753 9.03125 18.1172 9.03125C18.4591 9.03125 18.7869 9.15824 19.0287 9.38429C19.2704 9.61034 19.4062 9.91692 19.4062 10.2366C19.4062 10.3432 19.361 10.4454 19.2804 10.5207C19.1998 10.5961 19.0905 10.6384 18.9766 10.6384C18.8626 10.6384 18.7533 10.5961 18.6727 10.5207C18.5921 10.4454 18.5469 10.3432 18.5469 10.2366C18.5469 10.13 18.5016 10.0278 18.421 9.9525C18.3404 9.87715 18.2311 9.83482 18.1172 9.83482C18.0032 9.83482 17.8939 9.87715 17.8134 9.9525C17.7328 10.0278 17.6875 10.13 17.6875 10.2366C17.687 10.4546 17.6393 10.6702 17.5473 10.8704C17.4553 11.0707 17.3209 11.2514 17.1521 11.4018C16.8336 11.6866 16.4095 11.845 15.9688 11.8437Z" fill="#EFEFEF"/>
<path d="M13.2148 21.6875H11.0664C10.6675 21.6875 10.285 21.5393 10.003 21.2756C9.72095 21.0119 9.5625 20.6542 9.5625 20.2812C9.5625 19.9083 9.72095 19.5506 10.003 19.2869C10.285 19.0232 10.6675 18.875 11.0664 18.875H13.2148C13.6137 18.875 13.9962 19.0232 14.2783 19.2869C14.5603 19.5506 14.7188 19.9083 14.7188 20.2812C14.7188 20.6542 14.5603 21.0119 14.2783 21.2756C13.9962 21.5393 13.6137 21.6875 13.2148 21.6875ZM11.0664 19.6786C10.8955 19.6786 10.7315 19.7421 10.6107 19.8551C10.4898 19.9681 10.4219 20.1214 10.4219 20.2812C10.4219 20.4411 10.4898 20.5944 10.6107 20.7074C10.7315 20.8204 10.8955 20.8839 11.0664 20.8839H13.2148C13.3858 20.8839 13.5497 20.8204 13.6706 20.7074C13.7915 20.5944 13.8594 20.4411 13.8594 20.2812C13.8594 20.1214 13.7915 19.9681 13.6706 19.8551C13.5497 19.7421 13.3858 19.6786 13.2148 19.6786H11.0664Z" fill="#EFEFEF"/>
<path d="M13.2148 23.5625H11.0664C10.6675 23.5625 10.285 23.4143 10.003 23.1506C9.72095 22.8869 9.5625 22.5292 9.5625 22.1562C9.5625 21.7833 9.72095 21.4256 10.003 21.1619C10.285 20.8982 10.6675 20.75 11.0664 20.75H13.2148C13.6137 20.75 13.9962 20.8982 14.2783 21.1619C14.5603 21.4256 14.7188 21.7833 14.7188 22.1562C14.7188 22.5292 14.5603 22.8869 14.2783 23.1506C13.9962 23.4143 13.6137 23.5625 13.2148 23.5625ZM11.0664 21.5536C10.8955 21.5536 10.7315 21.6171 10.6107 21.7301C10.4898 21.8431 10.4219 21.9964 10.4219 22.1562C10.4219 22.3161 10.4898 22.4694 10.6107 22.5824C10.7315 22.6954 10.8955 22.7589 11.0664 22.7589H13.2148C13.3858 22.7589 13.5497 22.6954 13.6706 22.5824C13.7915 22.4694 13.8594 22.3161 13.8594 22.1562C13.8594 21.9964 13.7915 21.8431 13.6706 21.7301C13.5497 21.6171 13.3858 21.5536 13.2148 21.5536H11.0664Z" fill="#EFEFEF"/>
<path d="M13.2148 25.9062H11.0664C10.6675 25.9062 10.285 25.7581 10.003 25.4944C9.72095 25.2306 9.5625 24.873 9.5625 24.5C9.5625 24.127 9.72095 23.7694 10.003 23.5056C10.285 23.2419 10.6675 23.0938 11.0664 23.0938H13.2148C13.6137 23.0938 13.9962 23.2419 14.2783 23.5056C14.5603 23.7694 14.7188 24.127 14.7188 24.5C14.7188 24.873 14.5603 25.2306 14.2783 25.4944C13.9962 25.7581 13.6137 25.9062 13.2148 25.9062ZM11.0664 23.8973C10.8955 23.8973 10.7315 23.9608 10.6107 24.0738C10.4898 24.1869 10.4219 24.3402 10.4219 24.5C10.4219 24.6598 10.4898 24.8131 10.6107 24.9262C10.7315 25.0392 10.8955 25.1027 11.0664 25.1027H13.2148C13.3858 25.1027 13.5497 25.0392 13.6706 24.9262C13.7915 24.8131 13.8594 24.6598 13.8594 24.5C13.8594 24.3402 13.7915 24.1869 13.6706 24.0738C13.5497 23.9608 13.3858 23.8973 13.2148 23.8973H11.0664Z" fill="#EFEFEF"/>
<path d="M21.3534 19.8125H18.3245C17.8655 19.8125 17.4253 19.6396 17.1007 19.332C16.7761 19.0243 16.5938 18.607 16.5938 18.1719C16.5938 17.7368 16.7761 17.3195 17.1007 17.0118C17.4253 16.7041 17.8655 16.5312 18.3245 16.5312H21.7861C21.9008 16.5312 22.0109 16.5745 22.092 16.6514C22.1732 16.7283 22.2188 16.8326 22.2188 16.9414C22.2188 17.0502 22.1732 17.1545 22.092 17.2314C22.0109 17.3084 21.9008 17.3516 21.7861 17.3516H18.3245C18.095 17.3516 17.8749 17.438 17.7126 17.5918C17.5503 17.7457 17.4591 17.9543 17.4591 18.1719C17.4591 18.3894 17.5503 18.5981 17.7126 18.7519C17.8749 18.9058 18.095 18.9922 18.3245 18.9922H21.3534C21.4681 18.9922 21.5782 19.0354 21.6593 19.1123C21.7405 19.1892 21.7861 19.2936 21.7861 19.4023C21.7861 19.5111 21.7405 19.6154 21.6593 19.6924C21.5782 19.7693 21.4681 19.8125 21.3534 19.8125Z" fill="#EFEFEF"/>
<path d="M26.9397 18.875H23.8929C23.7774 18.875 23.6667 18.8338 23.5851 18.7606C23.5034 18.6873 23.4576 18.588 23.4576 18.4844C23.4576 18.1736 23.32 17.8755 23.0751 17.6557C22.8302 17.436 22.4981 17.3125 22.1518 17.3125H21.7165C21.6011 17.3125 21.4904 17.2713 21.4087 17.1981C21.3271 17.1248 21.2812 17.0255 21.2812 16.9219C21.2812 16.8183 21.3271 16.7189 21.4087 16.6457C21.4904 16.5724 21.6011 16.5312 21.7165 16.5312H22.1518C22.6533 16.5317 23.1393 16.6874 23.5279 16.9721C23.9164 17.2567 24.1837 17.6529 24.2846 18.0938H26.9397C27.0552 18.0938 27.1659 18.1349 27.2475 18.2082C27.3291 18.2814 27.375 18.3808 27.375 18.4844C27.375 18.588 27.3291 18.6873 27.2475 18.7606C27.1659 18.8338 27.0552 18.875 26.9397 18.875Z" fill="#EFEFEF"/>
<path d="M22.1518 26.8438H21.7165C21.6011 26.8438 21.4904 26.7944 21.4087 26.7065C21.3271 26.6185 21.2812 26.4993 21.2812 26.375C21.2812 26.2507 21.3271 26.1315 21.4087 26.0435C21.4904 25.9556 21.6011 25.9062 21.7165 25.9062H22.1518C22.4981 25.9062 22.8302 25.7581 23.0751 25.4944C23.32 25.2306 23.4576 24.873 23.4576 24.5C23.4576 24.3757 23.5034 24.2565 23.5851 24.1685C23.6667 24.0806 23.7774 24.0312 23.8929 24.0312H26.9397C27.0552 24.0312 27.1659 24.0806 27.2475 24.1685C27.3291 24.2565 27.375 24.3757 27.375 24.5C27.375 24.6243 27.3291 24.7435 27.2475 24.8315C27.1659 24.9194 27.0552 24.9688 26.9397 24.9688H24.2846C24.1837 25.4978 23.9164 25.9732 23.5279 26.3148C23.1393 26.6563 22.6533 26.8432 22.1518 26.8438Z" fill="#EFEFEF"/>
<path d="M19.6407 14.6563C19.5762 14.6561 19.5118 14.6505 19.4481 14.6395C19.1702 14.5826 18.9197 14.4225 18.7407 14.1872C18.5616 13.9518 18.4654 13.6563 18.4688 13.3524V10.4597C18.4688 10.3484 18.51 10.2417 18.5832 10.163C18.6565 10.0843 18.7559 10.0401 18.8594 10.0401C18.963 10.0401 19.0624 10.0843 19.1357 10.163C19.2089 10.2417 19.2501 10.3484 19.2501 10.4597V13.3524C19.2465 13.457 19.2766 13.5597 19.3353 13.6431C19.394 13.7266 19.4777 13.7858 19.5723 13.8107C19.6285 13.8214 19.6863 13.8188 19.7414 13.8029C19.7966 13.7871 19.8479 13.7585 19.8916 13.7191C19.9354 13.6797 19.9705 13.6304 19.9947 13.5748C20.0188 13.5192 20.0313 13.4586 20.0313 13.3973V10.3884C20.0313 10.2771 20.0724 10.1704 20.1457 10.0917C20.2189 10.013 20.3183 9.96875 20.4219 9.96875C20.5255 9.96875 20.6248 10.013 20.6981 10.0917C20.7713 10.1704 20.8125 10.2771 20.8125 10.3884V13.3973C20.8125 13.7312 20.689 14.0514 20.4693 14.2875C20.2495 14.5236 19.9515 14.6563 19.6407 14.6563Z" fill="#EFEFEF"/>
</svg>

<svg xmlns="http://www.w3.org/2000/svg" width="35" height="35" fill="none" viewBox="0 0 35 35"><rect width="35" height="35" fill="#272727" rx="17.5" transform="matrix(1 0 0 -1 0 35)"/><path fill="#EFEFEF" d="M9.584 12.312a.483.483 0 0 1-.307-.106.372.372 0 0 1-.139-.263 28.35 28.35 0 0 1-.044-1.584c0-.103.047-.203.13-.276a.48.48 0 0 1 .316-.114.48.48 0 0 1 .315.114c.084.073.13.173.13.276 0 .53.017 1.047.046 1.541a.362.362 0 0 1-.113.282.473.473 0 0 1-.334.13ZM22.197 12.312h-.025a.498.498 0 0 1-.169-.037.446.446 0 0 1-.139-.092.384.384 0 0 1-.089-.131.345.345 0 0 1-.024-.151c.03-.494.044-1.012.044-1.541 0-.104.047-.204.13-.277a.48.48 0 0 1 .316-.114.48.48 0 0 1 .316.114c.084.073.13.173.13.277 0 .543-.016 1.075-.047 1.584a.372.372 0 0 1-.138.26.481.481 0 0 1-.305.108Z"/><path fill="#F2C247" d="M22.685 13.72a.42.42 0 0 0-.42-.47h-1.498c-.02.145-.06.286-.118.42a.842.842 0 0 1-.868.41.823.823 0 0 1-.575-.41 1.589 1.589 0 0 1-.127-.42H9.984a.424.424 0 0 0-.419.47c.223 1.85.66 3.67 1.304 5.42.164 0 .31-.004.443-.013l.002.012h2.068a1.057 1.057 0 0 1 1.055 1.052 1.05 1.05 0 0 1-1.055 1.052 1.057 1.057 0 0 1 1.055 1.052 1.05 1.05 0 0 1-1.055 1.051 1.057 1.057 0 0 1 1.055 1.052 1.05 1.05 0 0 1-1.055 1.052h-.506a.908.908 0 0 0-.64 0h-.016v.004c-.142.04-.287.068-.434.084-.091.863-.235 1.72-.432 2.566a1.258 1.258 0 0 0 .68 1.426c.171.083.36.126.55.126h7.081a1.268 1.268 0 0 0 1.235-.986c.042-.186.041-.379-.003-.564a21.056 21.056 0 0 1-.552-4.76c0-1.273.389-2.373.839-3.646a.41.41 0 0 0 .021-.136 3.88 3.88 0 0 1-.419-.004h-2.129a1.268 1.268 0 0 1-1.266-1.262 1.26 1.26 0 0 1 1.266-1.262h2.948l.008-.03c.13.016.27.024.429.027.296-1.087.51-2.195.643-3.313Z"/><path fill="#EFEFEF" d="M10.456 8.094a.424.424 0 0 1-.396-.265.41.41 0 0 1 .007-.319c.198-.445.524-.824.94-1.09.414-.267.899-.41 1.394-.41.228 0 .453.032.672.093.202-.46.522-.861.928-1.164a3.025 3.025 0 0 1 2.89-.391c.475.183.894.484 1.216.873a2.578 2.578 0 0 1 2.896.49c.477.468.746 1.103.747 1.766 0 .11-.045.217-.125.295a.43.43 0 0 1-.6 0 .413.413 0 0 1-.125-.295c0-.305-.084-.604-.245-.865a1.683 1.683 0 0 0-.668-.614 1.724 1.724 0 0 0-1.76.116.43.43 0 0 1-.607-.125 2.106 2.106 0 0 0-.912-.81 2.158 2.158 0 0 0-2.33.336 2.073 2.073 0 0 0-.634 1.034.413.413 0 0 1-.234.276.432.432 0 0 1-.365-.004 1.724 1.724 0 0 0-1.907.28c-.167.153-.3.338-.393.543a.43.43 0 0 1-.39.25ZM22.297 10.438a.413.413 0 0 1-.276-.104.335.335 0 0 1-.115-.248.335.335 0 0 0-.114-.249.414.414 0 0 0-.276-.103h-.067a.344.344 0 0 0-.229.086.278.278 0 0 0-.095.206.335.335 0 0 1-.114.249.414.414 0 0 1-.277.103.414.414 0 0 1-.276-.103.335.335 0 0 1-.114-.249c0-.264.117-.516.324-.703.207-.186.488-.291.781-.292h.067c.31 0 .609.111.828.31.22.197.343.465.343.745a.335.335 0 0 1-.114.248.413.413 0 0 1-.276.104ZM15.969 11.844h-.093a1.806 1.806 0 0 1-1.17-.534 1.582 1.582 0 0 1-.456-1.142.323.323 0 0 0-.105-.235.37.37 0 0 0-.252-.098h-3.51a.445.445 0 0 0-.304.117.389.389 0 0 0-.126.285.389.389 0 0 1-.126.284.445.445 0 0 1-.304.117.445.445 0 0 1-.303-.117.389.389 0 0 1-.126-.284c0-.32.136-.627.377-.853.242-.226.57-.353.912-.353h3.51c.323 0 .632.12.86.334.228.213.356.502.356.803a.818.818 0 0 0 .224.585c.15.162.36.264.589.287a.914.914 0 0 0 .343-.048.87.87 0 0 0 .295-.171.806.806 0 0 0 .199-.266c.046-.1.07-.21.07-.318 0-.32.135-.627.377-.853.241-.226.57-.353.911-.353.342 0 .67.127.912.353.241.226.377.533.377.853a.389.389 0 0 1-.126.284.445.445 0 0 1-.303.117.445.445 0 0 1-.304-.117.389.389 0 0 1-.126-.284.389.389 0 0 0-.126-.284.445.445 0 0 0-.304-.118.445.445 0 0 0-.304.117.389.389 0 0 0-.125.285c-.001.218-.049.433-.14.633-.093.2-.227.381-.396.532a1.77 1.77 0 0 1-1.183.442ZM13.215 21.688h-2.149c-.399 0-.781-.149-1.063-.412a1.361 1.361 0 0 1-.44-.995c0-.373.158-.73.44-.994a1.558 1.558 0 0 1 1.063-.412h2.149c.399 0 .781.148 1.063.412.282.264.44.621.44.994s-.158.73-.44.995a1.559 1.559 0 0 1-1.063.412Zm-2.149-2.01a.668.668 0 0 0-.455.177.583.583 0 0 0-.19.426c0 .16.069.313.19.426.12.113.284.177.455.177h2.149a.668.668 0 0 0 .456-.177.583.583 0 0 0 .188-.426.583.583 0 0 0-.188-.426.668.668 0 0 0-.456-.176h-2.149Z"/><path fill="#EFEFEF" d="M13.215 23.563h-2.149c-.399 0-.781-.149-1.063-.412a1.361 1.361 0 0 1-.44-.995c0-.373.158-.73.44-.994a1.558 1.558 0 0 1 1.063-.412h2.149c.399 0 .781.148 1.063.412.282.264.44.621.44.994s-.158.73-.44.995a1.559 1.559 0 0 1-1.063.412Zm-2.149-2.01a.668.668 0 0 0-.455.177.583.583 0 0 0-.19.426c0 .16.069.313.19.426.12.113.284.177.455.177h2.149a.668.668 0 0 0 .456-.177.583.583 0 0 0 .188-.426.583.583 0 0 0-.188-.426.668.668 0 0 0-.456-.176h-2.149Z"/><path fill="#EFEFEF" d="M13.215 25.906h-2.149c-.399 0-.781-.148-1.063-.412a1.362 1.362 0 0 1-.44-.994c0-.373.158-.73.44-.994a1.558 1.558 0 0 1 1.063-.412h2.149c.399 0 .781.148 1.063.412.282.263.44.621.44.994s-.158.73-.44.994a1.559 1.559 0 0 1-1.063.412Zm-2.149-2.009a.668.668 0 0 0-.455.177.584.584 0 0 0-.19.426c0 .16.069.313.19.426.12.113.284.177.455.177h2.149a.668.668 0 0 0 .456-.177.584.584 0 0 0 .188-.426.584.584 0 0 0-.188-.426.668.668 0 0 0-.456-.177h-2.149ZM21.353 19.813h-3.029c-.459 0-.899-.173-1.223-.481a1.598 1.598 0 0 1-.507-1.16c0-.435.182-.852.507-1.16a1.78 1.78 0 0 1 1.224-.48h3.461c.115 0 .225.043.306.12a.4.4 0 0 1 .127.29.4.4 0 0 1-.127.29.445.445 0 0 1-.306.12h-3.462a.89.89 0 0 0-.611.24.8.8 0 0 0-.254.58.8.8 0 0 0 .254.58.89.89 0 0 0 .611.24h3.03c.114 0 .224.043.305.12a.4.4 0 0 1 .127.29.4.4 0 0 1-.127.29.445.445 0 0 1-.306.12Z"/><path fill="#EFEFEF" d="M26.94 18.875h-3.047a.462.462 0 0 1-.308-.114.371.371 0 0 1-.127-.277c0-.31-.138-.609-.383-.828a1.386 1.386 0 0 0-.923-.343h-.436a.462.462 0 0 1-.307-.115.372.372 0 0 1-.128-.276c0-.104.046-.203.128-.276a.462.462 0 0 1 .308-.115h.435c.501 0 .987.156 1.376.441.388.285.656.68.757 1.122h2.655c.115 0 .226.04.307.114a.371.371 0 0 1 .128.276.372.372 0 0 1-.128.277.462.462 0 0 1-.307.114ZM22.152 26.844h-.436a.42.42 0 0 1-.307-.138.488.488 0 0 1-.128-.331c0-.124.046-.244.128-.331a.42.42 0 0 1 .308-.138h.435c.346 0 .678-.148.923-.412.245-.263.383-.621.383-.994 0-.124.045-.244.127-.331a.42.42 0 0 1 .308-.138h3.047a.42.42 0 0 1 .307.138.488.488 0 0 1 .128.331.488.488 0 0 1-.128.331.42.42 0 0 1-.307.138h-2.655a2.384 2.384 0 0 1-.757 1.346 2.087 2.087 0 0 1-1.376.529ZM19.64 14.656c-.064 0-.128-.006-.192-.017a1.192 1.192 0 0 1-.707-.452 1.356 1.356 0 0 1-.272-.835V10.46c0-.112.041-.218.114-.297a.378.378 0 0 1 .276-.123c.104 0 .203.044.277.123a.436.436 0 0 1 .114.297v2.892a.478.478 0 0 0 .085.291.422.422 0 0 0 .237.168.364.364 0 0 0 .32-.092.418.418 0 0 0 .103-.144.447.447 0 0 0 .036-.178v-3.009c0-.11.041-.218.115-.296a.377.377 0 0 1 .276-.123c.104 0 .203.044.276.123a.436.436 0 0 1 .114.296v3.01c0 .333-.123.653-.343.89-.22.236-.518.368-.828.368Z"/></svg>
